packages/icons/svg/Outline/phone-call.svg

<svg fill="none" height="24" viewBox="0 0 24 24" width="24" xmlns="http://www.w3.org/2000/svg"><path clip-rule="evenodd" d="m17.4004 20.0001c-7.389 0-13.40002-6.012-13.40002-13.40004 0-1.434 1.166-2.59999 2.6-2.59999.109 0 .217.007.327.02099l1.061 4.621c-.13115.06823-.27149.14163-.40839.21323l-.00039.00021-.12922.06756c-.862.45-1.542.806-1.185 1.59104 1.176 3.346 3.87502 6.046 7.18102 7.206.8423.3375 1.1691-.2875 1.621-1.1516l.006-.0114c.0519-.0984.1054-.2011.1584-.3027.0429-.0824.0854-.164.1266-.2423l4.62 1.06c.015.108.022.217.022.328 0 1.434-1.166 2.6-2.6 2.6zm4.351-4.0921c-.113-.325-.385-.569-.721-.646l-5.964-1.369c-.329-.074-.673.019-.916.253-.143.136-.146.14-.796 1.381-2.13-.97-3.87503-2.709-4.87903-4.883 1.239-.649 1.242-.652 1.379-.794.23403-.244.32803-.588.25303-.916l-1.36903-5.964c-.077-.336-.322-.609-.647-.722-.238-.082-.483-.144-.725-.183-.249-.043-.506-.065-.766-.065-2.537 0-4.6 2.063-4.6 4.6 0 8.492 6.908 15.4 15.40003 15.4 2.536 0 4.6-2.063 4.6-4.6 0-.258-.023-.513-.065-.761-.04-.25-.102-.495-.184-.731zm-8.7514-7.90806c1.654 0 3 1.34599 3 2.99996 0 .553.447 1 1 1s1-.447 1-1c0-2.75696-2.243-4.99997-5-4.99997-.552 0-1 .447-1 1.00001 0 .55299.448 1 1 1zm7 3.00006c0-3.859-3.141-7-7-7-.552 0-1-.447-1-1s.448-1 1-1c4.963 0 9 4.037 9 9 0 .553-.447 1-1 1s-1-.447-1-1z" fill="#6b7280" fill-rule="evenodd"/></svg>

<svg width="24" height="24" viewBox="0 0 24 24" fill="none" xmlns="http://www.w3.org/2000/svg">
<g id="Icon/Outline/phone-call">
<path id="Mask" fill-rule="evenodd" clip-rule="evenodd" d="M17.4005 20C10.0115 20 4.00049 13.988 4.00049 6.6C4.00049 5.166 5.16649 4 6.60049 4C6.70949 4 6.81749 4.007 6.92749 4.021L7.98849 8.642C7.85719 8.71031 7.71667 8.7838 7.57962 8.85547L7.45049 8.923C6.58849 9.373 5.90849 9.729 6.26549 10.514C7.44149 13.86 10.1405 16.56 13.4465 17.72C14.2888 18.0575 14.6156 17.4325 15.0675 16.5684L15.0735 16.557C15.1254 16.4586 15.1789 16.356 15.2319 16.2543C15.2748 16.172 15.3173 16.0903 15.3585 16.012L19.9785 17.072C19.9935 17.18 20.0005 17.289 20.0005 17.4C20.0005 18.834 18.8345 20 17.4005 20ZM21.7515 15.908C21.6385 15.583 21.3665 15.339 21.0305 15.262L15.0665 13.893C14.7375 13.819 14.3935 13.912 14.1505 14.146C14.0075 14.282 14.0045 14.286 13.3545 15.527C11.2245 14.557 9.47949 12.818 8.47549 10.644C9.71449 9.995 9.71749 9.992 9.85449 9.85C10.0885 9.606 10.1825 9.262 10.1075 8.934L8.73849 2.97C8.66149 2.634 8.41649 2.361 8.09149 2.248C7.85349 2.166 7.60849 2.104 7.36649 2.065C7.11749 2.022 6.86049 2 6.60049 2C4.06349 2 2.00049 4.063 2.00049 6.6C2.00049 15.092 8.90849 22 17.4005 22C19.9365 22 22.0005 19.937 22.0005 17.4C22.0005 17.142 21.9775 16.887 21.9355 16.639C21.8955 16.389 21.8335 16.144 21.7515 15.908ZM13.0001 8C14.6541 8 16.0001 9.346 16.0001 11C16.0001 11.553 16.4471 12 17.0001 12C17.5531 12 18.0001 11.553 18.0001 11C18.0001 8.243 15.7571 6 13.0001 6C12.4481 6 12.0001 6.447 12.0001 7C12.0001 7.553 12.4481 8 13.0001 8ZM20.0001 11C20.0001 7.141 16.8591 4 13.0001 4C12.4481 4 12.0001 3.553 12.0001 3C12.0001 2.447 12.4481 2 13.0001 2C17.9631 2 22.0001 6.037 22.0001 11C22.0001 11.553 21.5531 12 21.0001 12C20.4471 12 20.0001 11.553 20.0001 11Z" fill="#000000"/>
</g>
</svg>
